src/icons/icons_set_02/018-agenda.svg

<svg height="50" viewBox="0 0 50 50" width="50" xmlns="http://www.w3.org/2000/svg"><path d="m33.25 11h-6.05v4.5h-4v-4.5h-5.7v4.5h-4v-4.5h-4.5v8.5h32v-8.5h-3.75v4.5h-4zm0-4v-4.5h4v4.5h7.75v40h-40v-40h8.5v-4.5h4v4.5h5.7v-4.5h4v4.5zm-24.25 16.5v19.5h32v-19.5z"/></svg>

<?xml version="1.0" encoding="UTF-8"?>
<svg width="50px" height="50px" viewBox="0 0 50 50" version="1.1" xmlns="http://www.w3.org/2000/svg" xmlns:xlink="http://www.w3.org/1999/xlink">
    <!-- Generator: Sketch 52.2 (67145) - http://www.bohemiancoding.com/sketch -->
    <title>018-agenda</title>
    <desc>Created with Sketch.</desc>
    <g id="018-agenda" stroke="none" stroke-width="1" fill="none" fill-rule="evenodd">
        <path d="M33.25,11 L27.2,11 L27.2,15.5 L23.2,15.5 L23.2,11 L17.5,11 L17.5,15.5 L13.5,15.5 L13.5,11 L9,11 L9,19.5 L41,19.5 L41,11 L37.25,11 L37.25,15.5 L33.25,15.5 L33.25,11 Z M33.25,7 L33.25,2.5 L37.25,2.5 L37.25,7 L45,7 L45,47 L5,47 L5,7 L13.5,7 L13.5,2.5 L17.5,2.5 L17.5,7 L23.2,7 L23.2,2.5 L27.2,2.5 L27.2,7 L33.25,7 Z M9,23.5 L9,43 L41,43 L41,23.5 L9,23.5 Z" id="Combined-Shape" fill="#000000" fill-rule="nonzero"></path>
        <g id="Group" transform="translate(14.000000, 4.000000)"></g>
    </g>
</svg>
